X: 39392
T: Tap Room, The
R: reel
M: 4/4
K: Eminor
|:E2BE [Dd]EBE|dBAF DEFD|E2BE [Dd]EBE|dBAF BEED|
E2BE [Dd]EBE|dBAF DEFA|afge fdec|dBAF BEE2:|
;e3f gfec|dBAF DFGD|Beef gfec|dBAF BEE2|
Beef gfec|dBAF DFGA|afge fdec|dBAF BEE2:|

